packages/core/assets/Icons/redo.svg

<svg viewBox="0 0 20 20" fill="none" xmlns="http://www.w3.org/2000/svg">
<path d="M13.5 8.33333H8.25001C7.37501 8.33333 6.61459 8.61111 5.96876 9.16667C5.32293 9.72222 5.00001 10.4167 5.00001 11.25C5.00001 12.0833 5.32293 12.7778 5.96876 13.3333C6.61459 13.8889 7.37501 14.1667 8.25001 14.1667H13.3333C13.5695 14.1667 13.7674 14.2465 13.9271 14.4062C14.0868 14.566 14.1667 14.7639 14.1667 15C14.1667 15.2361 14.0868 15.434 13.9271 15.5937C13.7674 15.7535 13.5695 15.8333 13.3333 15.8333H8.25001C6.90279 15.8333 5.74654 15.3958 4.78126 14.5208C3.81598 13.6458 3.33334 12.5556 3.33334 11.25C3.33334 9.94444 3.81598 8.85417 4.78126 7.97917C5.74654 7.10417 6.90279 6.66667 8.25001 6.66667H13.5L11.9167 5.08333C11.7639 4.93056 11.6875 4.73611 11.6875 4.5C11.6875 4.26389 11.7639 4.06944 11.9167 3.91667C12.0695 3.76389 12.2639 3.6875 12.5 3.6875C12.7361 3.6875 12.9306 3.76389 13.0833 3.91667L16.0833 6.91667C16.1667 7 16.2257 7.09028 16.2604 7.1875C16.2951 7.28472 16.3125 7.38889 16.3125 7.5C16.3125 7.61111 16.2951 7.71528 16.2604 7.8125C16.2257 7.90972 16.1667 8 16.0833 8.08333L13.0833 11.0833C12.9306 11.2361 12.7361 11.3125 12.5 11.3125C12.2639 11.3125 12.0695 11.2361 11.9167 11.0833C11.7639 10.9306 11.6875 10.7361 11.6875 10.5C11.6875 10.2639 11.7639 10.0694 11.9167 9.91667L13.5 8.33333Z" fill="currentColor"/>
</svg>

<svg xmlns="http://www.w3.org/2000/svg" width="20" height="20" fill="none" viewBox="0 0 20 20">
  <path fill="#201F1F" d="M13.5 8.333H8.25c-.875 0-1.635.278-2.281.834C5.323 9.722 5 10.417 5 11.25c0 .833.323 1.528.969 2.083.646.556 1.406.834 2.281.834h5.083c.236 0 .434.08.594.24.16.159.24.357.24.593s-.08.434-.24.594a.806.806 0 0 1-.594.24H8.25c-1.347 0-2.503-.438-3.469-1.313-.965-.875-1.448-1.965-1.448-3.271 0-1.306.483-2.396 1.448-3.27.966-.876 2.122-1.313 3.469-1.313h5.25l-1.583-1.584a.79.79 0 0 1-.23-.583.79.79 0 0 1 .23-.583.79.79 0 0 1 .583-.23.79.79 0 0 1 .583.23l3 3a.73.73 0 0 1 .177.27.923.923 0 0 1 .052.313.923.923 0 0 1-.052.313.73.73 0 0 1-.177.27l-3 3a.79.79 0 0 1-.583.23.79.79 0 0 1-.583-.23.79.79 0 0 1-.23-.583.79.79 0 0 1 .23-.583L13.5 8.333Z"/>
</svg>
